Newaita-dark/mimetypes/16/virtualbox-ovf.svg

<?xml version="1.0" encoding="UTF-8"?>
<svg xmlns="http://www.w3.org/2000/svg" xmlns:xlink="http://www.w3.org/1999/xlink" width="16px" height="16px" viewBox="0 0 16 16" version="1.1">
<defs>
<linearGradient id="linear0" gradientUnits="userSpaceOnUse" x1="254" y1="233.5" x2="254" y2="254.666672" gradientTransform="matrix(0.031253,0,0,0.031253,-0.00000190753,6.719393)">
<stop offset="0" style="stop-color:rgb(0%,0%,0%);stop-opacity:0.27451;"/>
<stop offset="1" style="stop-color:rgb(0%,0%,0%);stop-opacity:0;"/>
</linearGradient>
<radialGradient id="radial0" gradientUnits="userSpaceOnUse" cx="450.908936" cy="189.579361" fx="450.908936" fy="189.579361" r="21.166656" gradientTransform="matrix(0.0000000870852,-0.0390662,-0.0703192,-0.0000000507693,26.561465,31.797666)">
<stop offset="0" style="stop-color:rgb(0%,0%,0%);stop-opacity:0.313726;"/>
<stop offset="0.222222" style="stop-color:rgb(0%,0%,0%);stop-opacity:0.27451;"/>
<stop offset="1" style="stop-color:rgb(0%,0%,0%);stop-opacity:0;"/>
</radialGradient>
<radialGradient id="radial1" gradientUnits="userSpaceOnUse" cx="450.908936" cy="189.579361" fx="450.908936" fy="189.579361" r="21.166656" gradientTransform="matrix(-0.0000000870852,0.0390662,0.0703192,0.0000000507693,-10.60226,-3.763739)">
<stop offset="0" style="stop-color:rgb(0%,0%,0%);stop-opacity:0.313726;"/>
<stop offset="0.222222" style="stop-color:rgb(0%,0%,0%);stop-opacity:0.27451;"/>
<stop offset="1" style="stop-color:rgb(0%,0%,0%);stop-opacity:0;"/>
</radialGradient>
<radialGradient id="radial2" gradientUnits="userSpaceOnUse" cx="450.908936" cy="189.579361" fx="450.908936" fy="189.579361" r="21.166656" gradientTransform="matrix(-0.0000000870852,-0.0390662,0.0703192,-0.0000000507693,-10.60226,31.797666)">
<stop offset="0" style="stop-color:rgb(0%,0%,0%);stop-opacity:0.313726;"/>
<stop offset="0.222222" style="stop-color:rgb(0%,0%,0%);stop-opacity:0.27451;"/>
<stop offset="1" style="stop-color:rgb(0%,0%,0%);stop-opacity:0;"/>
</radialGradient>
<radialGradient id="radial3" gradientUnits="userSpaceOnUse" cx="450.908936" cy="189.579361" fx="450.908936" fy="189.579361" r="21.166656" gradientTransform="matrix(0.0000000870852,0.0390662,-0.0703192,0.0000000507693,26.561464,-3.76374)">
<stop offset="0" style="stop-color:rgb(0%,0%,0%);stop-opacity:0.313726;"/>
<stop offset="0.222222" style="stop-color:rgb(0%,0%,0%);stop-opacity:0.27451;"/>
<stop offset="1" style="stop-color:rgb(0%,0%,0%);stop-opacity:0;"/>
</radialGradient>
<linearGradient id="linear1" gradientUnits="userSpaceOnUse" x1="254" y1="-168.666656" x2="254" y2="233.5" gradientTransform="matrix(0.031253,0,0,0.031253,0,6.719392)">
<stop offset="0" style="stop-color:rgb(100%,80.000001%,50.196081%);stop-opacity:1;"/>
<stop offset="1" style="stop-color:rgb(100%,71.764708%,30.19608%);stop-opacity:1;"/>
</linearGradient>
<linearGradient id="linear2" gradientUnits="userSpaceOnUse" x1="253.130798" y1="-129.433121" x2="253.130798" y2="272.733551" gradientTransform="matrix(3.779528,0,0,3.779528,3.285154,664.314209)">
<stop offset="0" style="stop-color:rgb(73.725492%,66.666669%,64.313728%);stop-opacity:1;"/>
<stop offset="1" style="stop-color:rgb(84.313726%,80.000001%,78.431374%);stop-opacity:1;"/>
</linearGradient>
</defs>
<g id="surface1">
<path style=" stroke:none;fill-rule:nonzero;fill:rgb(0%,0%,0%);fill-opacity:0.196078;" d="M 1.984375 14.015625 C 1.617188 14.015625 1.324219 13.722656 1.324219 13.355469 L 1.324219 13.273438 C 1.324219 13.640625 1.617188 13.933594 1.984375 13.933594 L 13.890625 13.933594 C 14.257812 13.933594 14.554688 13.640625 14.554688 13.273438 L 14.554688 13.355469 C 14.554688 13.722656 14.257812 14.015625 13.890625 14.015625 Z M 1.984375 14.015625 "/>
<path style=" stroke:none;fill-rule:nonzero;fill:url(#linear0);" d="M 2.5625 14.015625 L 13.394531 14.015625 L 13.394531 14.679688 L 2.5625 14.679688 Z M 2.5625 14.015625 "/>
<path style=" stroke:none;fill-rule:nonzero;fill:url(#radial0);" d="M 13.394531 14.015625 L 14.71875 14.015625 L 14.71875 13.355469 L 13.394531 13.355469 Z M 13.394531 14.015625 "/>
<path style=" stroke:none;fill-rule:nonzero;fill:url(#radial1);" d="M 2.5625 14.015625 L 1.242188 14.015625 L 1.242188 14.679688 L 2.5625 14.679688 Z M 2.5625 14.015625 "/>
<path style=" stroke:none;fill-rule:nonzero;fill:url(#radial2);" d="M 2.5625 14.015625 L 1.242188 14.015625 L 1.242188 13.355469 L 2.5625 13.355469 Z M 2.5625 14.015625 "/>
<path style=" stroke:none;fill-rule:nonzero;fill:url(#radial3);" d="M 13.394531 14.015625 L 14.71875 14.015625 L 14.71875 14.679688 L 13.394531 14.679688 Z M 13.394531 14.015625 "/>
<path style=" stroke:none;fill-rule:nonzero;fill:url(#linear1);" d="M 1.820312 1.449219 L 14.058594 1.449219 C 14.332031 1.449219 14.554688 1.671875 14.554688 1.945312 L 14.554688 13.519531 C 14.554688 13.792969 14.332031 14.015625 14.058594 14.015625 L 1.820312 14.015625 C 1.546875 14.015625 1.324219 13.792969 1.324219 13.519531 L 1.324219 1.945312 C 1.324219 1.671875 1.546875 1.449219 1.820312 1.449219 Z M 1.820312 1.449219 "/>
<path style="fill:none;stroke-width:21.155001;stroke-linecap:butt;stroke-linejoin:miter;stroke:rgb(7.843138%,7.843138%,7.843138%);stroke-opacity:0.235294;stroke-miterlimit:4;" d="M 148.110856 85.346318 L 179.857824 85.346318 L 222.228778 169.963238 L 275.223717 21.852382 L 317.469683 117.093287 L 349.216651 42.975365 L 391.587605 138.21627 L 433.958559 138.21627 " transform="matrix(0.031253,0,0,0.031253,0,6.719392)"/>
<path style=" stroke:none;fill-rule:nonzero;fill:rgb(100%,100%,100%);fill-opacity:0.117647;" d="M 1.324219 12.199219 L 1.324219 13.519531 C 1.324219 13.796875 1.542969 14.015625 1.820312 14.015625 L 14.058594 14.015625 C 14.332031 14.015625 14.554688 13.796875 14.554688 13.519531 L 14.554688 12.199219 Z M 1.324219 12.199219 "/>
<path style=" stroke:none;fill-rule:nonzero;fill:rgb(0%,0%,0%);fill-opacity:0.235294;" d="M 6.296875 1.449219 L 6.332031 5.742188 L 6.566406 5.976562 L 6.785156 5.753906 L 7.007812 5.976562 L 7.234375 5.746094 L 7.460938 5.976562 L 7.691406 5.746094 L 7.917969 5.976562 L 8.144531 5.746094 L 8.371094 5.976562 L 8.601562 5.746094 L 8.828125 5.976562 L 9.054688 5.746094 L 9.28125 5.976562 L 9.515625 5.742188 L 9.515625 1.449219 Z M 6.296875 1.449219 "/>
<path style="fill-rule:nonzero;fill:url(#linear2);stroke-width:11.338583;stroke-linecap:round;stroke-linejoin:round;stroke:rgb(12.941177%,12.941177%,12.941177%);stroke-opacity:1;stroke-miterlimit:4;" d="M 764.336499 175.258863 L 768.115665 667.022952 L 796.459417 694.894307 L 823.385981 668.440139 L 849.840149 694.894307 L 877.711504 667.495348 L 905.110464 694.894307 L 932.509424 667.495348 L 959.908384 694.894307 L 987.307344 667.495348 L 1015.178699 694.894307 L 1042.577659 667.495348 L 1069.976619 694.894307 L 1097.375579 667.495348 L 1124.774538 694.894307 L 1153.11829 667.022952 L 1153.11829 175.258863 Z M 764.336499 175.258863 " transform="matrix(0.00826902,0,0,0.00826902,0,0)"/>
<path style=" stroke:none;fill-rule:nonzero;fill:rgb(100%,100%,100%);fill-opacity:0.392157;" d="M 1.820312 1.449219 C 1.542969 1.449219 1.324219 1.667969 1.324219 1.945312 L 1.324219 2.109375 C 1.324219 1.835938 1.542969 1.613281 1.820312 1.613281 L 14.058594 1.613281 C 14.332031 1.613281 14.554688 1.835938 14.554688 2.109375 L 14.554688 1.945312 C 14.554688 1.667969 14.332031 1.449219 14.058594 1.449219 Z M 1.820312 1.449219 "/>
<path style=" stroke:none;fill-rule:nonzero;fill:rgb(1.960784%,1.960784%,1.960784%);fill-opacity:0.235294;" d="M 1.820312 14.015625 C 1.542969 14.015625 1.324219 13.796875 1.324219 13.519531 L 1.324219 13.355469 C 1.324219 13.628906 1.542969 13.851562 1.820312 13.851562 L 14.058594 13.851562 C 14.332031 13.851562 14.554688 13.628906 14.554688 13.355469 L 14.554688 13.519531 C 14.554688 13.796875 14.332031 14.015625 14.058594 14.015625 Z M 1.820312 14.015625 "/>
<path style=" stroke:none;fill-rule:nonzero;fill:rgb(12.941177%,12.941177%,12.941177%);fill-opacity:1;" d="M 1.820312 1.402344 C 1.519531 1.402344 1.277344 1.644531 1.277344 1.945312 L 1.277344 13.519531 C 1.277344 13.820312 1.519531 14.0625 1.820312 14.0625 L 14.058594 14.0625 C 14.355469 14.0625 14.601562 13.820312 14.601562 13.519531 L 14.601562 1.945312 C 14.601562 1.644531 14.355469 1.402344 14.058594 1.402344 Z M 1.820312 1.496094 L 14.058594 1.496094 C 14.308594 1.496094 14.507812 1.695312 14.507812 1.945312 L 14.507812 13.519531 C 14.507812 13.769531 14.308594 13.96875 14.058594 13.96875 L 1.820312 13.96875 C 1.570312 13.96875 1.371094 13.769531 1.371094 13.519531 L 1.371094 1.945312 C 1.371094 1.695312 1.570312 1.496094 1.820312 1.496094 Z M 1.820312 1.496094 "/>
<path style=" stroke:none;fill-rule:nonzero;fill:rgb(0%,0%,0%);fill-opacity:0.235294;" d="M 3.140625 2.109375 L 2.316406 3.101562 L 2.8125 3.101562 L 2.8125 4.425781 L 3.472656 4.425781 L 3.472656 3.101562 L 3.96875 3.101562 Z M 3.140625 2.109375 "/>
<path style=" stroke:none;fill-rule:nonzero;fill:rgb(0%,0%,0%);fill-opacity:0.235294;" d="M 4.796875 2.109375 L 3.96875 3.101562 L 4.464844 3.101562 L 4.464844 4.425781 L 5.125 4.425781 L 5.125 3.101562 L 5.621094 3.101562 Z M 4.796875 2.109375 "/>
<path style=" stroke:none;fill-rule:nonzero;fill:rgb(0%,0%,0%);fill-opacity:0.235294;" d="M 2.480469 4.753906 L 5.457031 4.753906 L 5.457031 5.085938 L 2.480469 5.085938 Z M 2.480469 4.753906 "/>
<path style=" stroke:none;fill-rule:nonzero;fill:rgb(25.490198%,25.490198%,25.490198%);fill-opacity:0.0784314;" d="M 1.820312 1.449219 C 1.542969 1.449219 1.324219 1.667969 1.324219 1.945312 L 1.324219 2.769531 L 14.554688 2.769531 L 14.554688 1.945312 C 14.554688 1.667969 14.332031 1.449219 14.058594 1.449219 Z M 1.820312 1.449219 "/>
</g>
</svg>

<svg xmlns="http://www.w3.org/2000/svg" width="16pt" height="16pt" viewBox="0 0 16 16"><defs><linearGradient id="a" gradientUnits="userSpaceOnUse" x1="254" y1="233.5" x2="254" y2="254.667" gradientTransform="matrix(.03125 0 0 .03125 0 6.72)"><stop offset="0" stop-opacity=".275"/><stop offset="1" stop-opacity="0"/></linearGradient><radialGradient id="b" gradientUnits="userSpaceOnUse" cx="450.909" cy="189.579" fx="450.909" fy="189.579" r="21.167" gradientTransform="matrix(0 -.03907 -.07032 0 26.561 31.798)"><stop offset="0" stop-opacity=".314"/><stop offset=".222" stop-opacity=".275"/><stop offset="1" stop-opacity="0"/></radialGradient><radialGradient id="c" gradientUnits="userSpaceOnUse" cx="450.909" cy="189.579" fx="450.909" fy="189.579" r="21.167" gradientTransform="matrix(0 .03907 .07032 0 -10.602 -3.764)"><stop offset="0" stop-opacity=".314"/><stop offset=".222" stop-opacity=".275"/><stop offset="1" stop-opacity="0"/></radialGradient><radialGradient id="d" gradientUnits="userSpaceOnUse" cx="450.909" cy="189.579" fx="450.909" fy="189.579" r="21.167" gradientTransform="matrix(0 -.03907 .07032 0 -10.602 31.798)"><stop offset="0" stop-opacity=".314"/><stop offset=".222" stop-opacity=".275"/><stop offset="1" stop-opacity="0"/></radialGradient><radialGradient id="e" gradientUnits="userSpaceOnUse" cx="450.909" cy="189.579" fx="450.909" fy="189.579" r="21.167" gradientTransform="matrix(0 .03907 -.07032 0 26.561 -3.764)"><stop offset="0" stop-opacity=".314"/><stop offset=".222" stop-opacity=".275"/><stop offset="1" stop-opacity="0"/></radialGradient><linearGradient id="f" gradientUnits="userSpaceOnUse" x1="254" y1="-168.667" x2="254" y2="233.5" gradientTransform="matrix(.03125 0 0 .03125 0 6.72)"><stop offset="0" stop-color="#ffcc80"/><stop offset="1" stop-color="#ffb74d"/></linearGradient><linearGradient id="g" gradientUnits="userSpaceOnUse" x1="253.131" y1="-129.433" x2="253.131" y2="272.734" gradientTransform="matrix(3.77953 0 0 3.77953 3.285 664.314)"><stop offset="0" stop-color="#bcaaa4"/><stop offset="1" stop-color="#d7ccc8"/></linearGradient></defs><path d="M1.984 14.016a.657.657 0 0 1-.66-.66v-.083c0 .368.293.66.66.66h11.907a.66.66 0 0 0 .664-.66v.082a.66.66 0 0 1-.664.66zm0 0" fill-opacity=".196"/><path d="M2.563 14.016h10.832v.664H2.563zm0 0" fill="url(#a)"/><path d="M13.395 14.016h1.324v-.66h-1.324zm0 0" fill="url(#b)"/><path d="M2.563 14.016h-1.32v.664h1.32zm0 0" fill="url(#c)"/><path d="M2.563 14.016h-1.32v-.66h1.32zm0 0" fill="url(#d)"/><path d="M13.395 14.016h1.324v.664h-1.324zm0 0" fill="url(#e)"/><path d="M1.82 1.45H14.06c.273 0 .496.222.496.495V13.52a.497.497 0 0 1-.496.496H1.82a.497.497 0 0 1-.496-.496V1.945c0-.273.223-.496.496-.496zm0 0" fill="url(#f)"/><path d="M4.629 9.387h.992l1.324 2.644 1.657-4.629 1.32 2.977.992-2.316 1.324 2.976h1.325" fill="none" stroke-width=".66109375" stroke="#141414" stroke-opacity=".235"/><path d="M1.324 12.2v1.32c0 .277.219.496.496.496H14.06a.494.494 0 0 0 .496-.496V12.2zm0 0" fill="#fff" fill-opacity=".118"/><path d="M6.297 1.45l.035 4.292.234.235.22-.223.222.223.226-.23.227.23.23-.23.227.23.227-.23.226.23.23-.23.227.23.227-.23.226.23.235-.235V1.45zm0 0" fill-opacity=".235"/><path d="M764.336 175.259l3.78 491.764 28.343 27.871 26.927-26.454 26.454 26.454 27.872-27.399 27.398 27.4 27.4-27.4 27.398 27.4 27.4-27.4 27.87 27.4 27.4-27.4 27.399 27.4 27.399-27.4 27.399 27.4 28.343-27.872V175.259zm0 0" transform="rotate(.882) scale(.00827)" fill="url(#g)" stroke-width="11.339" stroke-linecap="round" stroke-linejoin="round" stroke="#212121"/><path d="M1.82 1.45a.492.492 0 0 0-.496.495v.164c0-.273.219-.496.496-.496H14.06c.273 0 .496.223.496.496v-.164a.494.494 0 0 0-.496-.496zm0 0" fill="#fff" fill-opacity=".392"/><path d="M1.82 14.016a.492.492 0 0 1-.496-.496v-.165c0 .274.219.497.496.497H14.06a.497.497 0 0 0 .496-.497v.165a.494.494 0 0 1-.496.496zm0 0" fill="#050505" fill-opacity=".235"/><path d="M1.82 1.402c-.3 0-.543.243-.543.543V13.52c0 .3.243.543.543.543H14.06a.544.544 0 0 0 .543-.543V1.945c0-.3-.247-.543-.543-.543zm0 .094H14.06c.25 0 .449.2.449.45V13.52c0 .25-.2.449-.45.449H1.82c-.25 0-.449-.2-.449-.45V1.946c0-.25.2-.449.45-.449zm0 0" fill="#212121"/><path d="M3.14 2.11l-.824.992h.497v1.324h.66V3.102h.496zm0 0" fill-opacity=".235"/><path d="M4.797 2.11l-.828.992h.496v1.324h.66V3.102h.496zm0 0M2.48 4.754h2.977v.332H2.48zm0 0" fill-opacity=".235"/><path d="M1.82 1.45a.492.492 0 0 0-.496.495v.825h13.23v-.825a.494.494 0 0 0-.495-.496zm0 0" fill="#414141" fill-opacity=".078"/></svg>
